X: 11813
Q: "With spirit."
M: 6/8
L: 1/8
K: G
g |\
gfg a2d | cBc d2g | gfg afd | cBc def |\
gfg gfg | efg gfe | ded cBA | AGG G2 |]


